X:74
T:The Boys OF Bluehill   Hornpipe  Allan's #74   pg19
C:Trad/Anon
B:Allan's Irish Fiddler (pub. Mozart Allen,  Glascow) date unknown
Z:FROM ALLAN'S TO NOTEWORTHY, FROM NOTEWORTHY TO ABC, MIDI AND .TXT BY VINCE
BRENNAN Dec. 2002 (HTTP://WWW.SOSYOURMOM.COM)
I:abc2nwc
M:2/2
L:1/8
K:D
(d3/2B/2)|{c}B3/2A/2F3/2A/2 D2F3/2A/2|B3/2A/2  3(Bcd)e2d3/2e/2|f3/2g/2a3/2f/2 e3/2g/2f3/2e/2|
d3/2f/2e3/2d/2 B2d3/2B/2|{A}B3/2A/2F3/2A/2D2F3/2A/2|B3/2A/2  3(Bcd) e2d3/2e/2|
f3/2a/2a3/2f/2 e3/2g/2f3/2e/2|d2d3/2d/2 d2:|
|:f3/2g/2|a3/2f/2d3/2f/2a2g3/2f/2|e3/2f/2g3/2a/2b2a3/2g/2|f3/2g/2a3/2f/2 e3/2g/2f3/2e/2|
d3/2f/2e3/2d/2 B2d3/2c/2|{c}B3/2A/2F3/2A/2 D2F3/2A/2|B3/2A/2  3(Bcd) e2d3/2e/2|
f3/2a/2a3/2f/2 e3/2g/2f3/2e/2|d2d3/2d/2 d2:|
